X: 1354
T: the Strawberry Blossom - 1st Setting   #2
R: reel
%S: s:2 b:11(5+5)
B: O'Neill's 1850 #1354
O: Carey
Z: Trish O'Neil
N: Compacted via another repeat, with multiple endings [JC]
M: C|
L: 1/8
K: D
"^A"|: fddf edBc | d2ef g2ag | fddf edBc | dBAF E2D2 "^B":: faab afdf |
| afdf g2g2 |1 faab afdf | gfed B2A2 :|2 faa2 faa2 | gfed B2A2 |]
